X:439
M:C|
L:1/8
K:E_
e/f/|g<e e>g f<d d>f|e<c c>e B<G Ge/f/|g<e e>g f>de>B|c<e B>G F/F/F Fe/f/|
g<e e>g f<d d>f|e<g c>e B<G G>B|e<g d>f c<e B>c|G<e B>G F/F/F F||

